resources/icons/16px/properties.svg

<svg xmlns="http://www.w3.org/2000/svg" viewBox="0 0 16 16">
  <path d="M2 6C.9 6 0 6.9 0 8s.9 2 2 2 2-.9 2-2-.9-2-2-2m4-3h9c.55 0 1-.45 1-1s-.45-1-1-1H6c-.55 0-1 .45-1 1s.45 1 1 1m-4 9c-1.1 0-2 .9-2 2s.9 2 2 2 2-.9 2-2-.9-2-2-2m13-5H6c-.55 0-1 .45-1 1s.45 1 1 1h9c.55 0 1-.45 1-1s-.45-1-1-1m0 6H6c-.55 0-1 .45-1 1s.45 1 1 1h9c.55 0 1-.45 1-1s-.45-1-1-1M2 0C.9 0 0 .9 0 2s.9 2 2 2 2-.9 2-2-.9-2-2-2"/>
</svg>

<?xml version="1.0" encoding="utf-8"?>
<!-- Generator: Adobe Illustrator 17.1.0, SVG Export Plug-In . SVG Version: 6.00 Build 0)  -->
<!DOCTYPE svg PUBLIC "-//W3C//DTD SVG 1.1//EN" "http://www.w3.org/Graphics/SVG/1.1/DTD/svg11.dtd">
<svg version="1.1" id="Layer_1" xmlns="http://www.w3.org/2000/svg" xmlns:xlink="http://www.w3.org/1999/xlink" x="0px" y="0px"
	 viewBox="0 0 16 16" enable-background="new 0 0 16 16" xml:space="preserve">
<g id="properties_3_">
	<g>
		<path fill-rule="evenodd" clip-rule="evenodd" d="M2,6C0.9,6,0,6.9,0,8c0,1.1,0.9,2,2,2s2-0.9,2-2C4,6.9,3.1,6,2,6z M6,3h9
			c0.55,0,1-0.45,1-1c0-0.55-0.45-1-1-1H6C5.45,1,5,1.45,5,2C5,2.55,5.45,3,6,3z M2,12c-1.1,0-2,0.9-2,2c0,1.1,0.9,2,2,2s2-0.9,2-2
			C4,12.9,3.1,12,2,12z M15,7H6C5.45,7,5,7.45,5,8c0,0.55,0.45,1,1,1h9c0.55,0,1-0.45,1-1C16,7.45,15.55,7,15,7z M15,13H6
			c-0.55,0-1,0.45-1,1c0,0.55,0.45,1,1,1h9c0.55,0,1-0.45,1-1C16,13.45,15.55,13,15,13z M2,0C0.9,0,0,0.9,0,2c0,1.1,0.9,2,2,2
			s2-0.9,2-2C4,0.9,3.1,0,2,0z"/>
	</g>
</g>
</svg>
